build/fonts/cisco/diskette.svg

<?xml version="1.0" encoding="UTF-8" standalone="no"?>
<svg
   xmlns:dc="http://purl.org/dc/elements/1.1/"
   xmlns:cc="http://creativecommons.org/ns#"
   xmlns:rdf="http://www.w3.org/1999/02/22-rdf-syntax-ns#"
   xmlns:svg="http://www.w3.org/2000/svg"
   xmlns="http://www.w3.org/2000/svg"
   viewBox="0 0 31.25 31.25"
   height="31.25"
   width="31.25"
   xml:space="preserve"
   version="1.1"
   id="svg2"><metadata
     id="metadata8"><rdf:RDF><cc:Work
         rdf:about=""><dc:format>image/svg+xml</dc:format><dc:type
           rdf:resource="http://purl.org/dc/dcmitype/StillImage" /></cc:Work></rdf:RDF></metadata><defs
     id="defs6"><clipPath
       id="clipPath18"
       clipPathUnits="userSpaceOnUse"><path
         id="path20"
         d="M 0,10 0,249 250,249 250,10 0,10 Z" /></clipPath></defs><g
     transform="matrix(1.25,0,0,-1.25,0,31.25)"
     id="g10"><g
       transform="scale(0.1,0.1)"
       id="g12"><g
         id="g14"><g
           clip-path="url(#clipPath18)"
           id="g16"><path
             id="path22"
             style="fill:#02709f;fill-opacity:1;fill-rule:nonzero;stroke:none"
             d="m 246.602,247.121 -6.012,-3.551 -233.55875,0 5.93755,3.711 233.6332,-0.16" /><path
             id="path24"
             style="fill:none;stroke:#ffffff;stroke-width:3.99993992;stroke-linecap:butt;stroke-linejoin:miter;stroke-miterlimit:4;stroke-dasharray:none;stroke-opacity:1"
             d="m 246.602,247.121 -6.012,-3.551 -233.55875,0 5.93755,3.711 233.6332,-0.16 z" /><path
             id="path26"
             style="fill:#02709f;fill-opacity:1;fill-rule:nonzero;stroke:none"
             d="m 246.641,15.5586 -0.039,231.5624 -6.012,-4.57 0,-232.5315 6.051,5.5391" /><path
             id="path28"
             style="fill:#02709f;fill-opacity:1;fill-rule:nonzero;stroke:none"
             d="m 17.6211,10.0195 222.9689,0 0,233.5505 -233.55875,0 0,-222.9294 10.58985,-10.6211" /><path
             id="path30"
             style="fill:none;stroke:#ffffff;stroke-width:3.99993992;stroke-linecap:butt;stroke-linejoin:miter;stroke-miterlimit:4;stroke-dasharray:none;stroke-opacity:1"
             d="m 222.891,243.57 0,-134.73 c 0,-9.8009 -7.969,-7.961 -7.969,-7.961 l -183.1212,0 c 0,0 -7.0703,-0.8985 -7.0703,7.07 l 0,135.621" /><path
             id="path32"
             style="fill:none;stroke:#ffffff;stroke-width:3.99993992;stroke-linecap:butt;stroke-linejoin:miter;stroke-miterlimit:4;stroke-dasharray:none;stroke-opacity:1"
             d="m 10.6211,219.699 10.6172,0 0,10.5898 -10.6172,0 0,-10.5898 z" /><path
             id="path34"
             style="fill:none;stroke:#ffffff;stroke-width:3.99993992;stroke-linecap:butt;stroke-linejoin:miter;stroke-miterlimit:4;stroke-dasharray:none;stroke-opacity:1"
             d="m 226.52,219.699 10.5898,0 0,10.5898 -10.5898,0 0,-10.5898 z" /><path
             id="path36"
             style="fill:#ffffff;fill-opacity:1;fill-rule:nonzero;stroke:none"
             d="m 185.121,78.1406 0,-65.6211 -138.9101,0 0,66.4805 c 0,7.0703 7.9688,6.2109 7.9688,6.2109 l 123.8323,0 c 7.968,0 7.109,-7.0703 7.109,-7.0703" /><path
             id="path38"
             style="fill:none;stroke:#02709f;stroke-width:3.99993992;stroke-linecap:butt;stroke-linejoin:miter;stroke-miterlimit:4;stroke-dasharray:none;stroke-opacity:1"
             d="m 185.121,78.1406 0,-65.6211 -138.9101,0 0,66.4805 c 0,7.0703 7.9688,6.2109 7.9688,6.2109 l 123.8323,0 c 7.968,0 7.109,-7.0703 7.109,-7.0703 z" /><path
             id="path40"
             style="fill:none;stroke:#ffffff;stroke-width:3.99993992;stroke-linecap:butt;stroke-linejoin:miter;stroke-miterlimit:4;stroke-dasharray:none;stroke-opacity:1"
             d="m 222.891,10.0195 0,68.1211 c 0,0 0.898,7.0703 -7.071,7.0703 l -161.4802,0 c 0,0 -7.9687,0.8594 -7.9687,-6.2109 l 0,-64.6914" /><path
             id="path42"
             style="fill:#02709f;fill-opacity:1;fill-rule:nonzero;stroke:none"
             d="m 72.9297,17.0898 27.4219,0 0,63.7109 -27.4219,0 0,-63.7109 z" /><path
             id="path44"
             style="fill:none;stroke:#ffffff;stroke-width:3.99993992;stroke-linecap:butt;stroke-linejoin:miter;stroke-miterlimit:4;stroke-dasharray:none;stroke-opacity:1"
             d="m 72.9297,17.0898 27.4219,0 0,63.7109 -27.4219,0 0,-63.7109 z" /><path
             id="path46"
             style="fill:none;stroke:#ffffff;stroke-width:3.99993992;stroke-linecap:butt;stroke-linejoin:miter;stroke-miterlimit:4;stroke-dasharray:none;stroke-opacity:1"
             d="m 240.59,242.672 6.211,4.418" /></g></g></g></g></svg>

<svg xmlns="http://www.w3.org/2000/svg" viewBox="0 0 31.25 31.25" height="31.25" width="31.25"><defs><clipPath id="a"><path d="M0 10v239h250V10H0z"/></clipPath></defs><g clip-path="url(#a)" transform="matrix(.13 0 0 -.13 0 31.25)"><path d="M246.602 247.121l-6.012-3.551H7.031l5.938 3.711 233.633-.16" fill="#02709f"/><path d="M246.602 247.121l-6.012-3.551H7.031l5.938 3.711 233.633-.16z" fill="none" stroke="#fff" stroke-width="4"/><path d="M246.641 15.559l-.039 231.562-6.012-4.57V10.02l6.051 5.539M17.621 10.02H240.59v233.55H7.031V20.64l10.59-10.62" fill="#02709f"/><path d="M222.891 243.57V108.84c0-9.8-7.969-7.961-7.969-7.961H31.801s-7.07-.898-7.07 7.07V243.57M10.621 219.699h10.617v10.59H10.621v-10.59zM226.52 219.699h10.59v10.59h-10.59v-10.59z" fill="none" stroke="#fff" stroke-width="4"/><path d="M185.121 78.14V12.52H46.211V79c0 7.07 7.969 6.21 7.969 6.21h123.832c7.968 0 7.109-7.07 7.109-7.07" fill="#fff"/><path d="M185.121 78.14V12.52H46.211V79c0 7.07 7.969 6.21 7.969 6.21h123.832c7.968 0 7.109-7.07 7.109-7.07z" fill="none" stroke="#02709f" stroke-width="4"/><path d="M222.891 10.02v68.12s.898 7.07-7.071 7.07H54.34s-7.969.86-7.969-6.21V14.309" fill="none" stroke="#fff" stroke-width="4"/><path d="M72.93 17.09h27.422V80.8H72.93V17.09z" fill="#02709f"/><path d="M72.93 17.09h27.422V80.8H72.93V17.09zM240.59 242.672l6.211 4.418" fill="none" stroke="#fff" stroke-width="4"/></g></svg>
